X:1
T: The Cat in the Corner
C:
R:Jig
Q:180
K:D
M:6/8
L:1/16
AG|F4D2 D2F2A2|d2A2F2 A2F2D2|E2G2E2 C2E2C2|E2G2E2 C2E2G2|F4D2 D2F2A2|d2A2F2 A2F2D2|G2B2G2 E2F2G2|A2F2D2 D4AG|
F4D2 D2F2A2|d2A2F2 A2F2D2|E2G2E2 C2E2C2|E2G2E2 C2E2G2|F4D2 D2F2A2|d2A2F2 A2F2D2|G2B2G2 E2F2G2|A2F2D2 D4ag|
f4d2 d2f2a2|a2f2d2 d2f2a2|e4c2 c2e2g2|g2e2c2 e2f2g2|f2a2f2 e2d2c2|d2c2B2 A2F2A2|Bcd2B2 A2B2G2|F2D2D2 D4ag|
f4d2 d2f2a2|a2f2d2 d2f2a2|e4c2 c2e2g2|g2e2c2 e2f2g2|f2a2f2 e2d2c2|d2c2B2 A2F2A2|Bcd2B2 A2B2G2|F2D2D2 D4||
